!!!OTL: 314. Friedlichkeit. / [Ernster Rundgesang.]
!!!COM: Seydelmann (Mel)
!!!ODT: 1799
!!!ARE: Europa, Mitteleuropa, Deutschland
!!!SCT: B0314
!!!TXL: @@DE
!!!YEM: Copyright 1995, estate of Helmut Schaffrath.
**kern	**text
*ICvox	*
*Ivox	*
*M4/4	*
*met(c)	*
*clefG2	*
*k[f#c#]	*
*D:	*
!LO:TX:a:t=Einzelne.	!
!LO:TX:a:t=Mäßig.	!
{8a	Es
=1	=1
4.a	iſt
8f#	ſo
4.f#	köſt-
8a	-lich,
=2	=2
8aL	Hand
8gJ	.
8f#L	in
8gJ	.
4.e}	Hand
{8g	das
=3	=3
8f#L	Le-
8aJ	.
8ddL	-ben
8cc#J	.
8bL	ʒu
8aJ	.
8gL	durch-
8f#J	.
=4	=4
2f#	-wal-
4e	-len,
8r}	.
{8a	Und
=5	=5
4.a	nicht
8f#	um
4.f#	je-
8a	-den
=6	=6
8aL	klei-
8gJ	.
8f#L	-nen
8gJ	.
4.e}	Tand
{8g	mit
=7	=7
8f#L	Men-
8aJ	.
8ddL	-ſchen
8cc#J	.
8bL	ʒu
8aJ	.
8gL	ʒer-
8f#J	.
=8	=8
2f#	-fal-
4e	-len
8r}	.
{8a	Um-
=9	=9
8eeL	-faſ-
8ddJ	.
8cc#L	-ſet
8bJ	.
4.a	euch
8g	mit
=10	=10
(8gL	Menſch-
8f#	.
8bJ)	.
8a	-lich-
4.a}	-keit
{8f#	und
=11	=11
8gL	laßt
8aJ	.
8bL	der
8cc#J	.
4dd	Höl-
8bL	-le
8gJ	.
=12	=12
4f#	Ʒwiſt
4e	und
4d	Streit!
8r}	.
!LO:TX:a:t=Im Chor.	!
{8a	Um-
=13	=13
8eeL	-faſ-
8ddJ	.
8cc#L	-ſet
8bJ	.
4.a	euch
8g	mit
=14	=14
(8gL	Menſch-
8f#	.
8bJ)	.
8a	-lich-
4.a}	-keit
{8f#	und
=15	=15
8gL	laßt
8aJ	.
8bL	der
8cc#J	.
4dd	Höl-
8bL	-le
8gJ	.
=16	=16
4f#	Ʒwiſt
4e	und
4d	Streit!
8r}	.
==	==
!!!AGN: Geselligkeits - Lied, Freude, Freundschaft
!!!GTL: Lieder der Freude und Geseligkeit
!!!ONB: ESAC (Essen Associative Code) Database: BOEHME
!!!AMT: simple quadruple
!!!AIN: vox
!!!EED: Helmut Schaffrath
!!!EEV: 1.0
!!@@COMMENT:"Gedicht von G. W. Chriſtoph Starke 1799. Ʒuerſt gedruckt mit der Melodie vom Kapell-
!!meiſter Franʒ Seydelmann in Dresden in Beckers "Taſchenbuch ʒum geſelligen Vergnügen" 1800
!!S. 253. - Mit Mel. von Kunʒen in Finks "Hausſchatʒ"."
!!@@END:
!!!Text: G. W. Ch. Starke
!!!URL-scan: https://archive.org/details/BoehmeVtLieder1895/page/n263/mode/2up
!!!ENC: Anna Maria Matuszewska
!!!EEV: 2024/04/07
*-	*-
